X:22
T:score116
L:1/8
Q:1/4=96
M:2/2
I:linebreak $
K:G
 EFGF | E2 B2 B2 A2 | G2 F2 EFGA |$ B2 e2 ^d2 e2 | f4 EFGF | E2 B2 B2 A2 |$ G2 F2 EFGA | %7
 B2 e2 ^defd | e4 z4 |] %9
